X:1
T:Title
%%score { ( 1 3 ) | ( 2 4 ) }
L:1/8
M:4/4
K:F
V:1 treble nm="Grand Piano"
V:3 treble 
V:2 bass 
V:4 bass 
V:1
 z4 z2[Q:1/4=100] [FA]>[GB] | [Ac]2 A>G F2 G>A | [DB]2 [Fd]4 [Fd]>[Fd] | [Fc]6 z2 | [EG]6 z2 | %5
 [Ac]2 A>G F2 G>A | [DB]2 [Fd]4 [Fd]>[Fd] | c2- [Ec-]>[Fc-] [Gc]2 [FA]>[EG] |[M:3/4] F6 | %9
[M:1/4] c>c |[M:4/4] [Fd]2 [Fd]>[Fd] [Fd]2 [Fe]>[Fd] | c2 A4 A>[GB] | [Ac]2 A>G F2 A2 | %13
[M:3/4] [EG]6 |[M:1/4] [FA]>[GB] |[M:4/4] [Ac]2 A>G F2 G>A | [DB]2 [Fd]4 [Fe]>[Fd] | %17
 [Fc]2 [FA]>[FA] [EG]2 [FA]>G |[M:3/4] F6 |] %19
V:2
 z4 z2 [F,C]>[F,C] | [F,C]2 [F,CF]>[F,B,F] [F,A,]2 [F,B,F]>[F,CF] | %2
 [B,,B,]2 [B,,B,]4 [B,,B,]>[B,,B,] | [F,A,]2 F,>F, F,2 E,>F, | C,2 C,>C, C,2 [F,CF]>[F,C] | %5
 [F,C]2 [F,CF]>[F,B,F] [F,A,]2 [F,B,F]>[F,CF] | [B,,B,]2 [B,,B,]4 [B,,B,]>[B,,B,] | %7
 [C,A,]2 [C,G,]>[C,A,] [C,B,]2 [C,C]>[C,B,] |[M:3/4] [F,A,]6 |[M:1/4] [F,A,F]>[F,A,F] | %10
[M:4/4] [B,,B,]2 [B,,B,]>[B,,B,] [B,,B,]2 [B,,B,]>[B,,B,] | [F,A,F]2 [F,CF]4 [F,CF]>[F,C] | %12
 [F,C]2 [F,CF]>[F,B,F] [F,A,]2 [F,CF]2 |[M:3/4] [C,C]6 |[M:1/4] [F,C]>[G,C] | %15
[M:4/4] [F,C]2 [F,CF]>[F,B,F] [F,A,]2 [F,B,F]>[F,CF] | [B,,B,]2 [B,,B,]4 [B,,B,]>[B,,B,] | %17
 [C,A,]2 [C,C]>[C,C] [C,C]2 C>[B,E] |[M:3/4] [F,A,]6 |] %19
V:3
 x8 | x8 | x8 | z2 A,>A, A,2 [CGB]>[CFA] | C2 C>C C2 A>[GB] | x8 | x8 | F2 z2 z4 |[M:3/4] x6 | %9
[M:1/4] x2 |[M:4/4] x8 | x8 | x8 |[M:3/4] x6 |[M:1/4] x2 |[M:4/4] x8 | x8 | x8 |[M:3/4] x6 |] %19
V:4
 x8 | x8 | x8 | x8 | x8 | x8 | x8 | x8 |[M:3/4] x6 |[M:1/4] x2 |[M:4/4] x8 | x8 | x8 |[M:3/4] x6 | %14
[M:1/4] x2 |[M:4/4] x8 | x8 | z4 z2 C,2 |[M:3/4] x6 |] %19

